my_site/img/advantanges/06.svg

<svg width="49" height="48" viewBox="0 0 49 48" fill="none" xmlns="http://www.w3.org/2000/svg">
<g clip-path="url(#clip0)">
<path d="M16.0637 33.9949C15.2527 33.1802 15.6755 33.4099 13.7192 32.8839C12.8316 32.6449 12.0513 32.1855 11.3457 31.6352L7.11121 42.0639C6.70147 43.0736 7.46681 44.1705 8.55134 44.1292L13.4691 43.9408L16.8515 47.5296C17.5981 48.3208 18.9085 48.0742 19.3183 47.0646L24.1763 35.1002C23.1645 35.6664 22.0417 35.9983 20.8807 35.9983C19.0607 35.9983 17.3508 35.2867 16.0637 33.9949ZM42.7272 42.0639L38.4927 31.6352C37.7871 32.1864 37.0068 32.6449 36.1192 32.8839C34.1527 33.4127 34.5839 33.1821 33.7747 33.9949C32.4876 35.2867 30.7768 35.9983 28.9568 35.9983C27.7957 35.9983 26.6729 35.6655 25.6612 35.1002L30.5192 47.0646C30.9289 48.0742 32.2403 48.3208 32.986 47.5296L36.3693 43.9408L41.2871 44.1292C42.3716 44.1705 43.1369 43.0727 42.7272 42.0639ZM31.5459 31.8733C32.972 30.4155 33.1353 30.5411 35.1663 29.9852C36.4627 29.6299 37.4763 28.5939 37.8235 27.2683C38.5216 24.6058 38.3405 24.9274 40.2455 22.9792C41.1947 22.0089 41.5652 20.5942 41.218 19.2686C40.5208 16.608 40.5199 16.9792 41.218 14.3158C41.5652 12.9902 41.1947 11.5755 40.2455 10.6052C38.3405 8.65706 38.5216 8.97769 37.8235 6.31613C37.4763 4.9905 36.4627 3.95456 35.1663 3.59925C32.5641 2.88581 32.8777 3.07238 30.9709 1.12331C30.0217 0.153002 28.6376 -0.226685 27.3412 0.128627C24.74 0.841127 25.1031 0.842064 22.4972 0.128627C21.2008 -0.226685 19.8167 0.152065 18.8675 1.12331C16.9625 3.07144 17.2761 2.88581 14.6731 3.59925C13.3767 3.95456 12.3631 4.9905 12.0159 6.31613C11.3187 8.97769 11.4988 8.65706 9.59387 10.6052C8.64467 11.5755 8.27321 12.9902 8.62134 14.3158C9.31854 16.9746 9.31947 16.6033 8.62134 19.2677C8.27414 20.5933 8.64467 22.008 9.59387 22.9792C11.4988 24.9274 11.3177 24.6058 12.0159 27.2683C12.3631 28.5939 13.3767 29.6299 14.6731 29.9852C16.7619 30.5571 16.9177 30.4671 18.2925 31.8733C19.5273 33.1361 21.4509 33.3621 22.9349 32.4189C23.5284 32.0405 24.2168 31.8396 24.9197 31.8396C25.6226 31.8396 26.311 32.0405 26.9044 32.4189C28.3875 33.3621 30.3111 33.1361 31.5459 31.8733ZM16.1141 16.4946C16.1141 11.523 20.0565 7.49269 24.9192 7.49269C29.7819 7.49269 33.7243 11.523 33.7243 16.4946C33.7243 21.4661 29.7819 25.4964 24.9192 25.4964C20.0565 25.4964 16.1141 21.4661 16.1141 16.4946Z" fill="#0D5C63"/>
</g>
<defs>
<clipPath id="clip0">
<rect width="35.84" height="48" fill="white" transform="translate(7)"/>
</clipPath>
</defs>
</svg>

<svg width="49" height="48" fill="none" xmlns="http://www.w3.org/2000/svg"><g clip-path="url(#clip0)"><path d="M16.064 33.995c-.811-.815-.389-.585-2.345-1.111-.887-.24-1.668-.699-2.373-1.249L7.11 42.064c-.41 1.01.356 2.106 1.44 2.065l4.918-.188 3.383 3.589a1.49 1.49 0 002.466-.465L24.176 35.1c-1.011.566-2.134.898-3.295.898-1.82 0-3.53-.711-4.817-2.003zm26.663 8.069l-4.234-10.429c-.706.551-1.486 1.01-2.374 1.249-1.966.529-1.535.298-2.344 1.11a6.756 6.756 0 01-4.818 2.004c-1.161 0-2.284-.332-3.296-.898l4.858 11.965a1.49 1.49 0 002.467.465l3.383-3.59 4.918.19a1.5 1.5 0 001.44-2.066zm-11.181-10.19c1.426-1.458 1.59-1.333 3.62-1.889a3.802 3.802 0 002.658-2.717c.698-2.662.517-2.34 2.422-4.289a3.898 3.898 0 00.972-3.71c-.697-2.661-.698-2.29 0-4.953a3.901 3.901 0 00-.973-3.71c-1.904-1.949-1.723-1.628-2.421-4.29A3.802 3.802 0 0035.166 3.6c-2.602-.713-2.288-.527-4.195-2.476A3.703 3.703 0 0027.34.13c-2.601.712-2.238.713-4.844 0a3.7 3.7 0 00-3.63.994c-1.905 1.948-1.59 1.763-4.194 2.476a3.802 3.802 0 00-2.657 2.717c-.697 2.662-.517 2.341-2.422 4.29a3.899 3.899 0 00-.973 3.71c.698 2.659.698 2.287 0 4.952a3.903 3.903 0 00.973 3.711c1.905 1.948 1.724 1.627 2.422 4.29a3.802 3.802 0 002.657 2.716c2.089.572 2.245.482 3.62 1.888a3.697 3.697 0 004.642.546 3.692 3.692 0 013.97 0 3.696 3.696 0 004.64-.546zm-15.432-15.38c0-4.971 3.942-9.001 8.805-9.001 4.863 0 8.805 4.03 8.805 9.002 0 4.971-3.942 9.001-8.805 9.001-4.863 0-8.805-4.03-8.805-9.001z" fill="#0D5C63"/></g><defs><clipPath id="clip0"><path fill="#fff" transform="translate(7)" d="M0 0h35.84v48H0z"/></clipPath></defs></svg>
